T: Pedar Bis
M: 4/4
L: 1/8
K: Edor
|:B>B AG FG A2|G/F/E FG A2 A2||:E>F GE FG A2|G/F/E FG A2 A2||:b>b ag fg a2|g/f/e fg a2 a2||:e>f ge fg a2|g/f/e fg a2 a2|
